!!!COM: Monteverdi, Claudio
!!!CDT: 1567/05/15/-1643/11/29/
!!!OTL: Pulchrae sunt genae tuae 
!!!OTL2: Ferir quel petto, Silvio?
!!!ONM: No. 4
!!!SMS: Musica tolta da i madrigali di Claudio Monteverdi, e d'altri autori, e fatta spirituale
!!!PPR: A. Coppini, ed.
!!!PPP: Milan
!!!PDT: 1607
!!!URL: http://www.jpj.dk/coppini.htm
!!!AIN: contrafacta
**kern	**kern	**kern	**kern	**kern
*staff5	*staff4	*staff3	*staff2	*staff1
*Ivox	*Ivox	*Ivox	*Ivox	*Ivox
*clefF4	*clefGv2	*clefG2	*clefG2	*clefG2
*k[b-]	*k[b-]	*k[b-]	*k[b-]	*k[b-]
*M4/4	*M4/4	*M4/4	*M4/4	*M4/4
*MM120	*MM120	*MM120	*MM120	*MM120
=1-	=1-	=1-	=1-	=1-
1r	1r	4g/	4g/	4g/
.	.	4f/	4g/	4a/
.	.	4e-/	4g/	4b-\
.	.	[4c/	[4a/	[4cc\
=2	=2	=2	=2	=2
1r	1r	4c/]	4a/]	4cc\]
.	.	4c/	4g/	4b-\
.	.	2d/	[2f#/	2a/
=3	=3	=3	=3	=3
1r	2r	2d/	2f#/]	2a/
.	4d\	4f/	4a/	4dd\
.	4c\	4g/	4cc\	4ee\
=4	=4	=4	=4	=4
1r	4B-\	4b-\	4dd\	4ff\
.	2G/	2bn\	2ee\	2gg\
.	4G/	4dd\	4dd\	4ff\
=5	=5	=5	=5	=5
1r	2A/	2a/	2cc#\	2ee\
.	2A/	2a/	2cc#\	2ee\
=6	=6	=6	=6	=6
1r	8r	8r	8r	8r
.	8F/	8cc\	8ff\	8aa\
.	8F/	8cc\	8ff\	8aa\
.	8F/	8cc\	8ee\	8gg\
.	4.B-\	4.f/	4.dd\	4.ff\
.	8B-\	8b-\	8dd\	8ff\
=7	=7	=7	=7	=7
1r	8B-\	8b-\	8dd\	8ff\
.	8c\	8b-\	8ee\	8ee\
.	2d\	2a/	4ff\	2dd\
.	.	.	4dd\	.
.	4d\	4bn\	[4ff\	4dd\
=8	=8	=8	=8	=8
1r	2c\	2cc\	4ff\]	2gg\
.	.	.	4ee\	.
.	2F/	2cc\	4ff\	2ff\
.	.	.	[4aa\	.
=9	=9	=9	=9	=9
1r	4r	4r	8aa\L]	4r
.	.	.	8gg\J	.
.	4.f\	4.a/	4dd\	4.aa\
.	.	.	4ee\	.
.	8e\	8cc/	.	8gg\
.	4d\	4f/	4a/	4ff\
=10	=10	=10	=10	=10
1r	4c\	4a/	4cc\	4ee\
.	4B-\	4d/	4f/	4dd\
.	4A/	4f/	4a/	4.dd\
.	4G/	4g/	4b-\	.
.	.	.	.	8dd\
=11	=11	=11	=11	=11
1r	4F/	4a/	8a/L	4.dd\
.	.	.	8b-/J	.
.	4E/	4g/	2cc\	.
.	.	.	.	8dd\
.	2G/	2g/	.	2dd\
.	.	.	4bn\	.
=12	=12	=12	=12	=12
1r	1c	1g	1cc	1cc
=13	=13	=13	=13	=13
1G	1d	[1g	4.g/	4.bn\
.	.	.	8a/	8cc\
.	.	.	4.bn\	[2dd\
.	.	.	8cc\	.
=14	=14	=14	=14	=14
1G	4d\	1g]	4.bn\	4dd\]
.	4.d\	.	.	8ee\L
.	.	.	8cc\	8ff\J
.	.	.	2dd\	2gg\
.	8d\	.	.	.
.	4d\	.	.	.
=15	=15	=15	=15	=15
4G\	1d	4b-\	4dd\	4gg\
4.G\	.	4.b-\	4.dd\	4.gg\
8G\	.	8b-\	8dd\	8gg\
4G\	.	4b-\	4dd\	4gg\
=16	=16	=16	=16	=16
2G\	2d\	2b-\	2dd\	2gg\
2G\	4r	2b-\	2dd\	2gg\
.	8d\	.	.	.
.	8d\	.	.	.
=17	=17	=17	=17	=17
4r	4d\	4r	4r	4r
8G\	8d\	8b-\	8dd\	8gg\
8G\	8d\	8b-\	8dd\	8gg\
4G\	2d\	4b-\	4dd\	4gg\
8G\	.	8b-\	8dd\	8gg\
8G\	.	8b-\	8dd\	8gg\
=18	=18	=18	=18	=18
2G\	2.d\	2b-\	2dd\	2gg\
2G\	.	[2b-\	[2dd\	[2gg\
.	8G/	.	.	.
.	8G/	.	.	.
=19	=19	=19	=19	=19
4E-\	2G/	4b-\]	4dd\]	4gg\]
4E-\	.	8e-/	8g/	8cc\
.	.	8e-/	8g/	8cc\
4E-\	4G/	4e-/	4g/	4cc\
8E-\	4G/	8g/	8g/	8cc\
8E-\	.	8g/	8g/	8cc\
=20	=20	=20	=20	=20
2.D\	1d	2.f/	2a/	4.dd\
.	.	.	.	8ee\
.	.	.	2a/	[2ff\
4C/	.	4e/	.	.
=21	=21	=21	=21	=21
2BB-/	2d\	8.d/L	2b-\	4ff\]
.	.	16e/Jk	.	.
.	.	2f/	.	4b-\
2BB-/	4d\	.	4f/	4b-\
.	4d\	4f/	[4b-\	4b-\
=22	=22	=22	=22	=22
1F	1c	1f	4b-\]	1cc
.	.	.	8a/L	.
.	.	.	8g/J	.
.	.	.	2a/	.
=23	=23	=23	=23	=23
2.BB-/	2B-\	2f/	2b-\	2dd\
.	4r	4r	4r	4r
4F\	4c\	4f/	4a/	4cc\
=24	=24	=24	=24	=24
4F\	4c\	4f/	4a/	4cc\
4D\	4F/	4f/	4b-\	4dd\
[2C/	[2c\	[2g/	8.cc\L	8.ee-\L
.	.	.	16dd\Jk	16ff\Jk
.	.	.	4ee-\	[4gg\
=25	=25	=25	=25	=25
4C/]	4c\]	4g/]	4cc\	4gg\]
4C/	4e-\	4g/	2cc\	4cc\
2G\	2d\	2g/	.	2dd\
.	.	.	4bn\	.
=26	=26	=26	=26	=26
1C	2e\	2g/	2cc\	2cc\
.	4r	2r	4r	4r
.	8c\	.	8e/	8g/
.	8c\	.	8e/	8g/
=27	=27	=27	=27	=27
1r	4c\	1r	2g/	2.cc\
.	2A/	.	.	.
.	.	.	4f/	.
.	4A/	.	4f/	8f/
.	.	.	.	8f/
=28	=28	=28	=28	=28
1r	2.c\	1r	2.e/	2.g/
.	4f\	.	4f/	4a/
=29	=29	=29	=29	=29
1r	4r	1r	4r	4r
.	8d\	.	8f#/	8a/
.	8d\	.	8f#/	8a/
.	4d\	.	2a/	[2dd\
.	[4Bn\	.	.	.
=30	=30	=30	=30	=30
1r	4B\]	1r	4g/	4dd\]
.	4Bn\	.	4g/	8g/
.	.	.	.	8g/
.	[2d\	.	[2f#/	[2a/
=31	=31	=31	=31	=31
1r	4d\]	1r	4f#/]	4a/]
.	4g\	.	4g/	4bn\
.	4r	.	4r	4r
.	4g\	.	4b-\	4dd\
=32	=32	=32	=32	=32
1r	4f\	1r	4a/	4dd\
.	4e-\	.	4g/	4cc\
.	4d\	.	4a/	4dd\
.	4d\	.	4a/	4dd\
=33	=33	=33	=33	=33
4r	4r	4r	4r	4r
8G\	8d\	8g/	8bn\	8dd\
8G\	8d\	8g/	8b\	8dd\
4G\	4d\	2g/	2dd\	[2gg\
[4E\	[4e\	.	.	.
=34	=34	=34	=34	=34
4E\]	4e\]	4g/	4cc\	4gg\]
4E\	4e\	4g/	4cc\	8cc\
.	.	.	.	8cc\
2G\	[2d\	[2g/	[2bn\	[2dd\
=35	=35	=35	=35	=35
4G\	4d\]	4g/]	4b\]	4dd\]
4c\	4c\	4g/	4cc\	4ee\
4r	4r	4r	4r	4r
8A\	8e\	8a/	8cc#\	8ee\
8A\	8e\	8a/	8cc#\	8ee\
=36	=36	=36	=36	=36
4A\	4e\	2a/	2ee\	2.aa\
2F#\	2A/	.	.	.
.	.	4a/	4dd\	.
4F#\	4A/	4a/	4dd\	8dd\
.	.	.	.	8dd\
=37	=37	=37	=37	=37
2.A\	2.e\	2.a/	2.cc#\	2.ee\
4d\	4d\	4a/	4dd\	4ff#\
=38	=38	=38	=38	=38
4r	4r	4r	4r	4r
4G\	4d\	4g/	4b-\	4dd\
4F\	4d\	4d/	4a/	4dd\
4E-\	4G/	4g/	4g/	4cc\
=39	=39	=39	=39	=39
4D\	4d\	4f#/	4a/	4dd\
4D\	4d\	4f#/	4a/	4dd\
2r	[2f\	2r	2r	2r
=40	=40	=40	=40	=40
2.B-\	4f\]	2.f/	2.b-\	2.dd\
.	8f\	.	.	.
.	8f\	.	.	.
.	4.B-\	.	.	.
8B-\	.	8f/	8b-\	8dd\
8B-\	8B-\	8f/	8b-\	8dd\
=41	=41	=41	=41	=41
4.E-\	8B-\	4.e-/	4.ee-\	4.gg\
.	8B-\	.	.	.
.	2B-\	.	.	.
8E-\	.	8e-/	8g/	8b-\
8E-\	.	8e-/	8g/	8b-\
8E-\	.	8e-/	8g/	8b-\
4E-\	4B-\	[4e-/	[4g/	[4b-\
=42	=42	=42	=42	=42
4E\	4r	4e-/]	4g/]	4b-\]
4D\	4B-\	4f/	4b-\	4dd\
2En\	2c\	2g/	2g/	2cc\
=43	=43	=43	=43	=43
2.F\	2c\	2.f/	2.a/	2.cc\
.	2r	.	.	.
4F\	.	4a/	4cc\	4ff\
=44	=44	=44	=44	=44
4F\	1r	4a/	4cc\	4ff\
4.B-\	.	4.b-\	4.dd\	4.ff\
8c\	.	8b-\	8ee\	8ee\
4d\	.	4a/	4ff\	4dd\
=45	=45	=45	=45	=45
2c\	1r	2cc\	2ee\	2gg\
4C/	.	4cc\	4ee\	4gg\
4D\	.	4a/	4dd\	4ff\
=46	=46	=46	=46	=46
4E\	1r	4g/	4cc\	4.ee\
4F\	.	4a/	4a/	.
.	.	.	.	8dd\
4.G\	.	4.g/	4.bn\	4.dd\
8G\	.	8g/	8b\	8dd\
=47	=47	=47	=47	=47
4C/	1r	4g/	4cc\	4cc\
4c\	.	4g/	4cc\	4ee\
4B-\	.	4b-\	4dd\	4ff\
4G\	.	4b-\	4dd\	4gg\
=48	=48	=48	=48	=48
2A\	1r	2a/	2cc#\	2ee\
2D\	.	2a/	2dd\	2dd\
=49	=49	=49	=49	=49
1r	4r	1r	4r	4r
.	4B-\	.	4b-\	4dd\
.	4B-\	.	4b-\	4dd\
.	[4e-\	.	[4g/	[4b-\
=50	=50	=50	=50	=50
1r	8e-\]	1r	8g/]	8b-\]
.	8f\	.	8a/	8a/
.	4g\	.	4b-\	4g/
.	2f\	.	2a/	2cc\
=51	=51	=51	=51	=51
1r	4F/	1r	4a/	4cc\
.	4G/	.	4g/	4b-\
.	4A/	.	4f/	4a/
.	4B-\	.	4d/	4g/
=52	=52	=52	=52	=52
1r	4.c\	1r	4.e/	4.g/
.	8c\	.	8e/	8g/
.	4F/	.	4f/	4f/
.	4f\	.	4f/	4a/
=53	=53	=53	=53	=53
1r	4e-\	1r	4g/	4b-\
.	4c\	.	4g/	4cc\
.	2d\	.	2f#/	2a/
=54	=54	=54	=54	=54
2r	2G/	2r	2g/	2b-\
2B-\	2d\	2b-\	2dd\	4ff\
.	.	.	.	[4gg\
=55	=55	=55	=55	=55
4c\	4e\	4g/	4cc\	4gg\]
4E\	4g\	4g/	4cc\	4cc\
2G\	2d\	2g/	2bn\	2dd\
=56	=56	=56	=56	=56
4r	4r	4r	4r	4gg\
4c\	4e\	4e/	4ee\	2aa\
4d\	4f\	4a/	4dd\	.
4F#\	4a\	4a/	4dd\	4dd\
=57	=57	=57	=57	=57
2A\	2e\	2a/	2cc#\	2ee\
[2d\	2d\	[2a/	4.dd\	4.ff\
.	.	.	8ee\	8gg\
=58	=58	=58	=58	=58
4d\]	4r	4a/]	4ff\	4aa\
8d\	8f\	8f/	8b-\	8dd\
8c\	8e\	8g/	8cc\	8ee\
4B-\	4d\	4b-\	4dd\	4ff\
4A\	4a\	4cc\	4ff\	4ff\
=59	=59	=59	=59	=59
2c\	2g\	2cc\	2ee\	2gg\
4F\	2a\	2cc\	2ff\	2ff\
8A\	.	.	.	.
8B-\	.	.	.	.
=60	=60	=60	=60	=60
4c\	4r	4r	4r	4r
8c\	8g\	8cc\	8cc\	8ee\
8c\	8f\	8cc\	8dd\	8ff\
2c\	4e\	4cc\	4ee\	4gg\
.	8e\	8cc\	8ee\	8gg\
.	8e\	8cc\	8ee\	8gg\
=61	=61	=61	=61	=61
4E\	4e\	4cc\	4ee\	4gg\
4F\	8A/	8c/	8dd\	8ff\
.	8A/	8c/	8cc\	8ee\
4.G\	4.d\	4.g/	4.bn\	4.dd\
8G\	8d\	8g/	8b\	8dd\
=62	=62	=62	=62	=62
2c\	2e\	2g/	8cc\	8cc\
.	.	.	8cc\	8ee\
.	.	.	8dd\	8ff\
.	.	.	8ee\	8gg\
8r	8r	8r	[2ff\	2aa\
8A\	8c\	8a/	.	.
8B-\	8d\	8f/	.	.
8c\	8e\	8e/	.	.
=63	=63	=63	=63	=63
4d\	4f\	4d/	4ff\]	4ff\
4G\	4B-\	4d/	4gg\	2dd\
2A\	2A/	2a/	2ee\	.
.	.	.	.	4cc#\
=64	=64	=64	=64	=64
1D	1A	1f#	1dd	1dd
=65	=65	=65	=65	=65
1r	4d\	1r	4f/	4a/
.	8d\	.	8f/	8a/
.	8d\	.	8f/	8a/
.	4d\	.	4f/	4a/
.	4d\	.	4f/	4a/
=66	=66	=66	=66	=66
1r	4.d\	1r	4f/	4.a/
.	.	.	4f/	.
.	8d\	.	.	8a/
.	4c#\	.	4e/	4a/
.	4d\	.	4f#/	4a/
=67	=67	=67	=67	=67
1r	2G/	1r	2g/	2b-\
.	2d\	.	2f#/	2a/
=68	=68	=68	=68	=68
1r	8g\	1r	8g/	8b-\
.	8g\	.	8a/	8cc\
.	4g\	.	4b-\	4dd\
.	4g\	.	4b-\	4dd\
.	4g\	.	4b-\	4dd\
=69	=69	=69	=69	=69
1r	4.g\	1r	4.b-\	4.dd\
.	8g\	.	8b-\	8dd\
.	4f#\	.	4a/	4dd\
.	4g\	.	4bn\	4dd\
=70	=70	=70	=70	=70
1r	2c\	1r	2cc\	2ee-\
.	4g\	.	4b-\	4dd\
.	4g\	.	4b-\	4dd\
=71	=71	=71	=71	=71
1r	4e\	1r	4g/	2cc\
.	4f\	.	4a/	.
.	4d\	.	4f/	2b-\
.	4e-\	.	4g/	.
=72	=72	=72	=72	=72
1r	4c\	1r	4e/	2a/
.	4d\	.	4f/	.
.	4B-\	.	4d/	2g/
.	4c\	.	[4e/	.
=73	=73	=73	=73	=73
1r	4A/	1r	4e/]	4f/
.	4B-\	.	4.d/	4f/
.	4G/	.	.	4b-\
.	.	.	16e/LL	.
.	.	.	16f/JJ	.
.	4G/	.	[4g/	4b-\
=74	=74	=74	=74	=74
1r	2d\	1r	4g/]	2a/
.	.	.	4f#/	.
.	2G/	.	2g/	4g/
.	.	.	.	4gg\
=75	=75	=75	=75	=75
1r	2d\	1r	2r	4aa\
.	.	.	.	4ff\
.	2c\	.	4r	4gg\
.	.	.	4cc\	4ee\
=76	=76	=76	=76	=76
1r	2B-\	1r	4dd\	4ff\
.	.	.	4b-\	4dd\
.	2A/	.	4cc\	4ee\
.	.	.	4a/	4cc\
=77	=77	=77	=77	=77
1r	2G/	1r	4b-\	4dd\
.	.	.	4g/	4b-\
.	4F/	.	2a/	2cc\
.	4F/	.	.	.
=78	=78	=78	=78	=78
1r	4B-\	1r	4b-\	2dd\
.	4B-\	.	2dd\	.
.	2A/	.	.	2ee\
.	.	.	4cc#\	.
=79	=79	=79	=79	=79
1r	1d	1r	1dd	1dd
=80	=80	=80	=80	=80
4G\	4d\	4g/	4b-\	4dd\
8G\	8d\	8g/	8b-\	8dd\
8G\	8d\	8g/	8b-\	8dd\
4G\	4d\	4g/	4b-\	4dd\
4G\	4d\	4g/	4b-\	4dd\
=81	=81	=81	=81	=81
4.G\	4.d\	4.g/	4.b-\	4.dd\
8G\	8d\	8g/	8b-\	8dd\
4F#\	4d\	4a/	4a/	4dd\
4G\	4d\	4g/	4bn\	4dd\
=82	=82	=82	=82	=82
2C/	2c\	2g/	2cc\	2ee-\
2G\	2d\	2g/	2bn\	2dd\
=83	=83	=83	=83	=83
8d\	8f\	8a/	8dd\	8dd\
8d\	8f\	8a/	8dd\	8ee\
4d\	4f\	4a/	4dd\	4ff\
4d\	4f\	4a/	4dd\	4ff\
4d\	4f\	4a/	4dd\	4ff\
=84	=84	=84	=84	=84
4.d\	4.f\	4.a/	4.dd\	4.ff\
8d\	8f\	8a/	8dd\	8ff\
4c#\	4a\	4a/	4ee\	4ee\
4d\	4d\	4a/	4dd\	4ff#\
=85	=85	=85	=85	=85
2G\	2d\	2b-\	2dd\	2gg\
4d\	4d\	4a/	2dd\	4ff#\
4d\	4a\	[4dd\	.	4ff#\
=86	=86	=86	=86	=86
4B-\	2g\	4dd\]	2r	4gg\
4c\	.	2cc\	.	4ee\
4A\	2f\	.	4r	4ff\
4B-\	.	[4b-\	4ff\	4dd\
=87	=87	=87	=87	=87
4G\	2e\	4b-\]	4gg\	4ee\
4A\	.	2a/	4ee\	4cc\
4F\	2d\	.	4ff\	4dd\
4G\	.	4g/	4dd\	4b-\
=88	=88	=88	=88	=88
4E\	4c\	4g/	4ee\	4.cc\
4F\	4A/	4f/	4cc\	.
.	.	.	.	8cc\
4D\	4d\	4.a/	4ff\	4dd\
4D\	4d\	.	4ff\	4dd\
.	.	8a/	.	.
=89	=89	=89	=89	=89
2A\	2e\	2a/	2ee\	2cc#\
2D\	2f#\	2a/	2dd\	2dd\
=90	=90	=90	=90	=90
4r	2r	2.b-\	2dd\	1r
4G\	.	.	.	.
4E\	4r	.	2cc\	.
4F\	4c\	[4a/	.	.
=91	=91	=91	=91	=91
4D\	4d\	4a/]	2b-\	4r
4E-\	4B-\	2g/	.	4gg\
4C/	4c\	.	2a/	4ee\
4D\	4A/	[4f/	.	4ff\
=92	=92	=92	=92	=92
4BB-/	4B-\	4f/]	2g/	4dd\
4C/	4G/	2e-/	.	4ee-\
4AA/	4A/	.	4f/	4cc\
4BB-/	4F/	[4d/	4f/	4dd\
=93	=93	=93	=93	=93
2GG/	4.B-\	4d/]	2g/	2b-\
.	.	4d/	.	.
.	8B-\	.	.	.
2G\	4B-\	4.d/	4g/	2b-\
.	4G/	.	[4g/	.
.	.	8d/	.	.
=94	=94	=94	=94	=94
1D	1A	1d	4g/]	1a
.	.	.	8f#/L	.
.	.	.	8e/J	.
.	.	.	2f#/	.
=95	=95	=95	=95	=95
1G;	1D;	1g;	1g;	1bn;
==	==	==	==	==
*-	*-	*-	*-	*-
!!!ENC: Craig Stuart Sapp
!!!END: 2004/12/10/
